X:11691
T:Nelsons Hornpipe. GS.122
M:2/2
L:1/8
Q:160
S:George Spencer m/s, Leeds,1831
R:Hornpipe
O:England
A:Leeds
N:'George Spencer 1831' written on stave at end of music
H:1831
Z:vmp.Cherri Graebe
K:A major
cd | ecfd cBdB | AGBG A2 cd | ecag fedc | cBdB BAGF | ecfd cBdB |! AGBG
A
afd |
cBdB AGBG | A2A2A2:|| cd | egaf fedc | fefg a2 ag |! fedc BAGF | E2E2E2
A
G |
 FABG Acec | dfaf ecfd | cBdB AGBG A2A2A2 :||
